svg/furkot/calendar.svg

<svg height="512" viewBox="0 0 512 512" width="512" xmlns="http://www.w3.org/2000/svg"><path d="m448 64h-48c.896 16.23.134 35.995-16.76 44.132-21.633 13.056-51.015-7.53-47.24-32.214 3.016-11.524-3.3-13.716-13.607-11.918h-146.393c.896 16.23.134 35.995-16.76 44.132-21.633 13.056-51.015-7.53-47.24-32.214 3.016-11.524-3.3-13.716-13.607-11.918-19.106 1.648-41.596-5.368-56.993 9.4-14.71 15.26-7.78 37.636-9.4 56.616.11 107.08-.221 214.171.166 321.244 1.456 20.42 22.673 31.609 41.359 28.74 125.91-.11 251.831.221 377.735-.166 20.42-1.456 31.609-22.673 28.74-41.359-.11-115.243.221-230.498-.166-345.735-1.36-15.884-15.875-29.032-31.834-28.74zm0 383.942c-127.944.097-256.057.097-384 0v-287.942h384zm-304-351.942c16.848-.08 16.804-18.69 16-30.967-.73-18.38 1.53-37.14-1.257-55.26-8.43-19.68-36.603-5.82-30.743 13.03.216 20.135-.433 40.314.325 60.421 1.372 7.27 8.271 12.91 15.675 12.776zm224 0c16.848-.08 16.804-18.69 16-30.967-.73-18.38 1.53-37.14-1.257-55.26-8.43-19.68-36.603-5.82-30.743 13.03.216 20.135-.433 40.314.325 60.421 1.372 7.27 8.271 12.91 15.675 12.776zm68 396c-121.086-.08-242.178.161-363.26-.121-15.958 3.539-30.857-21.334-28.74-25.158-1.517 16.478 2.036 36.194 19.575 42.754 19.005 4.925 39.16 1.51 58.687 2.525 105.665-.11 211.34.221 316.998-.166 20.42-1.456 31.609-22.673 28.74-41.359 1.867-14.587-5.268 23.264-19.575 19.625-4.002 1.307-8.22 1.9-12.425 1.9z"/></svg>

<svg width="512" height="512" data-tags="calendar" style="margin-left:2px;margin-top:2px" viewBox="0 0 512 512" xmlns="http://www.w3.org/2000/svg"><path d="M 448 64 L 400 64 C 400.896 80.23 400.134 99.995 383.24 108.132 C 361.607 121.188 332.225 100.602 336 75.918 C 339.016 64.394 332.7 62.202 322.393 64 L 176 64 C 176.896 80.23 176.134 99.995 159.24 108.132 C 137.607 121.188 108.225 100.602 112 75.918 C 115.016 64.394 108.7 62.202 98.393 64 C 79.287 65.648 56.797 58.632 41.4 73.4 C 26.69 88.66 33.62 111.036 32 130.016 C 32.11 237.096 31.779 344.187 32.166 451.26 C 33.622 471.68 54.839 482.869 73.525 480 C 199.435 479.89 325.356 480.221 451.26 479.834 C 471.68 478.378 482.869 457.161 480 438.475 C 479.89 323.232 480.221 207.977 479.834 92.74 C 478.474 76.856 463.959 63.708 448 64 Z M 448 447.942 C 320.056 448.039 191.943 448.039 64 447.942 L 64 160 L 448 160 L 448 447.942 Z M 144 96 C 160.848 95.92 160.804 77.31 160 65.033 C 159.27 46.653 161.53 27.893 158.743 9.773 C 150.313 -9.907 122.14 3.953 128 22.803 C 128.216 42.938 127.567 63.117 128.325 83.224 C 129.697 90.494 136.596 96.134 144 96 Z M 368 96 C 384.848 95.92 384.804 77.31 384 65.033 C 383.27 46.653 385.53 27.893 382.743 9.773 C 374.313 -9.907 346.14 3.953 352 22.803 C 352.216 42.938 351.567 63.117 352.325 83.224 C 353.697 90.494 360.596 96.134 368 96 Z M 436 492 C 314.914 491.92 193.822 492.161 72.74 491.879 C 56.782 495.418 41.883 470.545 44 466.721 C 42.483 483.199 46.036 502.915 63.575 509.475 C 82.58 514.4 102.735 510.985 122.262 512 C 227.927 511.89 333.602 512.221 439.26 511.834 C 459.68 510.378 470.869 489.161 468 470.475 C 469.867 455.888 462.732 493.739 448.425 490.1 C 444.423 491.407 440.205 492 436 492 Z"/></svg>
